icons/snapchat.svg

<svg
  width="24"
  height="24"
  viewBox="0 0 24 24"
  xmlns="http://www.w3.org/2000/svg"
>
  <path
    fill-rule="evenodd"
    clip-rule="evenodd"
    d="M7.248 4.07C8.43 2.666 10.104 2 12 2c1.94 0 3.604.784 4.764 2.213 1.03 1.27 1.613 2.984 1.719 4.977l.092.014.02.003c.17.024.373.054.584.095.781.151 2.114.533 2.573 1.964.23.719.115 1.385-.288 1.913-.347.455-.843.718-1.198.877-.176.08-.352.148-.5.205.346.936.948 1.899 1.614 2.771.627.822.461 1.863.137 2.542-.325.68-1.027 1.457-2.049 1.501-.578.025-1.185.085-1.789.195-.273.05-.595.159-.995.324-.239.098-.458.196-.694.301-.188.084-.386.172-.615.27-.94.404-2.095.835-3.375.835-1.28 0-2.435-.431-3.375-.835a36.908 36.908 0 0 1-.615-.27c-.23-.104-.461-.204-.694-.301-.4-.165-.722-.275-.995-.325a13.22 13.22 0 0 0-1.79-.194c-1.021-.044-1.724-.821-2.048-1.501-.324-.679-.49-1.72.137-2.542.67-.878 1.275-1.848 1.62-2.79a8.903 8.903 0 0 1-.449-.191c-.346-.162-.816-.421-1.163-.855-.387-.486-.558-1.113-.406-1.831.324-1.537 1.77-1.92 2.534-2.064.217-.04.428-.07.605-.095l.035-.005.12-.017c.099-2.125.678-3.863 1.732-5.114zm1.53 1.288c-.763.905-1.278 2.36-1.278 4.5v.104l-.022.103c-.111.524-.514.769-.714.863-.21.099-.437.148-.597.178-.156.029-.33.053-.485.074l-.046.007c-.17.023-.341.05-.511.08-.765.143-.91.333-.947.51-.026.127-.003.153.01.167l.004.004c.053.067.181.167.447.291.124.058.255.111.4.17l.036.014c.127.05.278.111.411.174.131.06.35.17.536.348.216.207.477.611.35 1.144-.364 1.531-1.283 3.005-2.161 4.155a.237.237 0 0 0-.016.106c0 .095.027.225.092.362.066.137.15.242.228.305.064.052.1.06.104.06.651.028 1.35.096 2.06.225.483.088.96.262 1.4.444.243.1.522.224.793.344.189.084.374.166.54.237.899.385 1.738.673 2.588.673.85 0 1.69-.288 2.588-.673.166-.071.351-.154.54-.237.27-.12.55-.244.792-.344.44-.182.917-.356 1.4-.444.71-.13 1.41-.197 2.06-.225.006 0 .041-.008.105-.06a.909.909 0 0 0 .228-.305.883.883 0 0 0 .092-.362c0-.093-.023-.115-.015-.104-.878-1.15-1.798-2.625-2.163-4.157-.135-.57.174-.98.387-1.17.19-.168.412-.273.547-.332.135-.06.287-.117.417-.166l.048-.019c.153-.057.29-.11.419-.169.27-.121.385-.214.424-.261a.448.448 0 0 0-.021-.095c-.091-.284-.348-.476-1.05-.612-.159-.03-.32-.054-.49-.08l-.038-.005a9.798 9.798 0 0 1-.473-.076 2.337 2.337 0 0 1-.589-.186c-.21-.104-.58-.353-.686-.853l-.022-.103v-.105c0-1.95-.507-3.42-1.289-4.383C14.446 4.53 13.361 4 12 4c-1.405 0-2.48.476-3.223 1.358h.001z"
  />
</svg>

<svg width="24" height="24" viewBox="0 0 24 24" fill="none" xmlns="http://www.w3.org/2000/svg">
<path fill-rule="evenodd" clip-rule="evenodd" d="M7.248 4.07C8.43 2.666 10.104 2 12 2C13.94 2 15.604 2.784 16.764 4.213C17.794 5.483 18.377 7.197 18.483 9.19L18.575 9.204L18.595 9.207C18.765 9.231 18.968 9.261 19.179 9.302C19.96 9.453 21.293 9.835 21.752 11.266C21.982 11.985 21.867 12.651 21.464 13.179C21.117 13.634 20.621 13.897 20.266 14.056C20.09 14.136 19.914 14.204 19.766 14.261C20.112 15.197 20.714 16.16 21.38 17.032C22.007 17.854 21.841 18.895 21.517 19.574C21.192 20.254 20.49 21.031 19.468 21.075C18.89 21.1 18.283 21.16 17.679 21.27C17.406 21.32 17.084 21.429 16.684 21.594C16.445 21.692 16.226 21.79 15.99 21.895C15.802 21.979 15.604 22.067 15.375 22.165C14.435 22.569 13.28 23 12 23C10.72 23 9.565 22.569 8.625 22.165C8.396 22.067 8.197 21.979 8.01 21.895C7.78009 21.7914 7.54873 21.6911 7.316 21.594C6.916 21.429 6.594 21.319 6.321 21.269C5.717 21.159 5.11 21.1 4.531 21.075C3.51 21.031 2.807 20.254 2.483 19.574C2.159 18.895 1.993 17.854 2.62 17.032C3.29 16.154 3.895 15.184 4.24 14.242C4.08861 14.1824 3.93889 14.1188 3.791 14.051C3.445 13.889 2.975 13.63 2.628 13.196C2.241 12.71 2.07 12.083 2.222 11.365C2.546 9.828 3.992 9.445 4.756 9.301C4.973 9.261 5.184 9.231 5.361 9.206L5.396 9.201L5.516 9.184C5.615 7.059 6.194 5.321 7.248 4.07V4.07ZM8.778 5.358C8.015 6.263 7.5 7.718 7.5 9.858V9.962L7.478 10.065C7.367 10.589 6.964 10.834 6.764 10.928C6.554 11.027 6.327 11.076 6.167 11.106C6.011 11.135 5.837 11.159 5.682 11.18L5.636 11.187C5.46506 11.2096 5.29468 11.2363 5.125 11.267C4.36 11.41 4.215 11.6 4.178 11.777C4.152 11.904 4.175 11.93 4.188 11.944L4.192 11.948C4.245 12.015 4.373 12.115 4.639 12.239C4.763 12.297 4.894 12.35 5.039 12.409L5.075 12.423C5.202 12.473 5.353 12.534 5.486 12.597C5.617 12.657 5.836 12.767 6.022 12.945C6.238 13.152 6.499 13.556 6.372 14.089C6.008 15.62 5.089 17.094 4.211 18.244C4.19764 18.2776 4.19217 18.3139 4.195 18.35C4.195 18.445 4.222 18.575 4.287 18.712C4.353 18.849 4.437 18.954 4.515 19.017C4.579 19.069 4.615 19.077 4.619 19.077C5.27 19.105 5.969 19.173 6.679 19.302C7.162 19.39 7.639 19.564 8.079 19.746C8.322 19.846 8.601 19.97 8.872 20.09C9.061 20.174 9.246 20.256 9.412 20.327C10.311 20.712 11.15 21 12 21C12.85 21 13.69 20.712 14.588 20.327C14.754 20.256 14.939 20.173 15.128 20.09C15.398 19.97 15.678 19.846 15.92 19.746C16.36 19.564 16.837 19.39 17.32 19.302C18.03 19.172 18.73 19.105 19.38 19.077C19.386 19.077 19.421 19.069 19.485 19.017C19.5817 18.9326 19.6594 18.8286 19.713 18.712C19.7691 18.5993 19.8005 18.4758 19.805 18.35C19.805 18.257 19.782 18.235 19.79 18.246C18.912 17.096 17.992 15.621 17.627 14.089C17.492 13.519 17.801 13.109 18.014 12.919C18.204 12.751 18.426 12.646 18.561 12.587C18.696 12.527 18.848 12.47 18.978 12.421L19.026 12.402C19.179 12.345 19.316 12.292 19.445 12.233C19.715 12.112 19.83 12.019 19.869 11.972C19.8655 11.9397 19.8584 11.9078 19.848 11.877C19.757 11.593 19.5 11.401 18.798 11.265C18.639 11.235 18.478 11.211 18.308 11.185L18.27 11.18C18.1117 11.1585 17.954 11.1332 17.797 11.104C17.5933 11.0683 17.3952 11.0058 17.208 10.918C16.998 10.814 16.628 10.565 16.522 10.065L16.5 9.962V9.857C16.5 7.907 15.993 6.437 15.211 5.474C14.446 4.53 13.361 4 12 4C10.595 4 9.52 4.476 8.777 5.358H8.778Z" fill="black"/>
</svg>
